packages/icons/svg/Device_Tablet_32px.svg

<svg xmlns="http://www.w3.org/2000/svg" viewBox="0 0 32 32"><path d="M23 5H9a2 2 0 00-2 2v18a2 2 0 002 2h14a2 2 0 002-2V7a2 2 0 00-2-2zM9 7h14v14H9zm0 18v-3h14v3z"/><path d="M16.35 23.15a.36.36 0 00-.16-.11.49.49 0 00-.54.11.47.47 0 00-.15.35.41.41 0 000 .19.36.36 0 00.11.16.45.45 0 00.39.15.41.41 0 00.19 0 .53.53 0 00.27-.27.41.41 0 000-.19.43.43 0 000-.19.36.36 0 00-.11-.2z"/></svg>

<svg xmlns="http://www.w3.org/2000/svg" viewBox="0 0 32 32"><defs></defs><g id="Icon"><path  d="M23,5H9A2,2,0,0,0,7,7V25a2,2,0,0,0,2,2H23a2,2,0,0,0,2-2V7A2,2,0,0,0,23,5ZM9,7H23V21H9ZM9,25V22H23v3Z"/><path  d="M16.35,23.15a.36.36,0,0,0-.16-.11.49.49,0,0,0-.54.11.47.47,0,0,0-.15.35.41.41,0,0,0,0,.19.36.36,0,0,0,.11.16A.45.45,0,0,0,16,24a.41.41,0,0,0,.19,0,.53.53,0,0,0,.27-.27.41.41,0,0,0,0-.19.43.43,0,0,0,0-.19A.36.36,0,0,0,16.35,23.15Z"/></g></svg>
